X: 1421
T: An tSléibhe Dearg
R: jig
M: 6/8
K: Adorian
|:c2E ABA|AGE GAB|c2E ABA|dBG G2B|
c2E ABA|AGE EGB|dBG BAG|ABA A2B:|
|:cAA age|bag e2c|BGG BAG|dBG G3|
cAA age|ged B2G|dBG BAG|ABA A3:|

